X:1
T:Ghost Tales
T: 1 - The Twins' Story 2 - Bobbie's Story 3 - Priscilla's Story 4 - A Traveler's Story 5 - Aunt Jerusha's Story 6 - Mammy Liza's Story 7 - The Sailor's Story 8 - Sister Ida's Story 9 - Mary Martha's Story 
T:Ghost Tales
T:The Twins' Story 
T:Mathilde Bilbro First edition 1918 
T:Bobbie's Story 
T:Priscilla's Story
T:A Traveler's Story ( The Haunted Dell ) 
T:In a deep, dark wood there's a cool shady Dell Where the moss hangs low, and I've heard tell That when midnight comes you can always hear Mysterious music, soft and clear! It comes from the Dell (and there's no soul there!) Yet this melody rings on the still night air: 
T:Aunt Jerusha's Story
T:Aunt Jerusha tells a tale about a ghost she saw One time in Grandpa's garret, when the night was cold and raw She heard a noise and she went up to see what it might br; And when she opened wide the door, she saw -Good gracious me!- A tall white object floating 'round above her head! And Aunt Jerusha's hair turned white that very night, she said. 
T: Mammy Liza's Story
T:The Sailor's Story
T:Sister Ida's Story "The Wind-Ghost" 
T:On stormy nights and stormy days When skies are dark and lightning plays, I hear the Wind-Ghost. -and he says;- "Ooo-oo-Woo-oo-Woo!" Where he goes nobody knows. Ha may live in the land of snows. But we can hear him when it blows, sayng: "Ooo-oo-Woo-oo-Woo!" 
T:Mary Martha's Story
T:I know a story of a Ghost ('Twoul never do to tell it) 'Twould frighten you to death almost; There never was a grimmer ghost! (I really must not tell it.) He walks at night, and shuns the light. And when it rains he clanks his chains! Oh, if I told just half the tale 'Twould make you shudder and grow pale! (And so I'll never tell it!) 
T:Public Domain - https://imslp.org/wiki/Ghost_Tales_(Bilbro%2C_Mathilde)
T:Public Domain - https://imslp.org/wiki/Ghost_Tales_(Bilbro%2C_Mathilde)
T:Public Domain - https://imslp.org/wiki/Ghost_Tales_(Bilbro%2C_Mathilde)
T:Public Domain - https://imslp.org/wiki/Ghost_Tales_(Bilbro%2C_Mathilde)
T:Public Domain - https://imslp.org/wiki/Ghost_Tales_(Bilbro%2C_Mathilde)
T:Public Domain - https://imslp.org/wiki/Ghost_Tales_(Bilbro%2C_Mathilde)
T:Public Domain - https://imslp.org/wiki/Ghost_Tales_(Bilbro%2C_Mathilde)
T:Public Domain - https://imslp.org/wiki/Ghost_Tales_(Bilbro%2C_Mathilde)
T:Public Domain - https://imslp.org/wiki/Ghost_Tales_(Bilbro%2C_Mathilde)
T:Public Domain - https://imslp.org/wiki/Ghost_Tales_(Bilbro%2C_Mathilde)
T:Public Domain - https://imslp.org/wiki/Ghost_Tales_(Bilbro%2C_Mathilde)
T:Public Domain - https://imslp.org/wiki/Ghost_Tales_(Bilbro%2C_Mathilde)
T:Public Domain - https://imslp.org/wiki/Ghost_Tales_(Bilbro%2C_Mathilde)
T:Public Domain - https://imslp.org/wiki/Ghost_Tales_(Bilbro%2C_Mathilde)
T:Public Domain - https://imslp.org/wiki/Ghost_Tales_(Bilbro%2C_Mathilde)
T:Public Domain - https://imslp.org/wiki/Ghost_Tales_(Bilbro%2C_Mathilde)
T:Public Domain - https://imslp.org/wiki/Ghost_Tales_(Bilbro%2C_Mathilde)
T:Public Domain - https://imslp.org/wiki/Ghost_Tales_(Bilbro%2C_Mathilde)
C:Mathilde Bilbro First edition 1918
Z:Public Domain - https://imslp.org/wiki/Ghost_Tales_(Bilbro%2C_Mathilde)
%%score { ( 1 3 ) | ( 2 4 ) }
L:1/8
Q:1/4=114
M:6/8
K:F
V:1 treble nm="Piano" snm="Pno."
V:3 treble 
V:2 bass 
V:4 bass 
V:1
!p!"^Moderato" (!3!GGF G2 c | C3) z3 ||!mf! !1!!3![Ac]2 [Ac] !2!!4![Bd]2 [Bd] | %3
w: ||One dark night when|
 (!1!!3![Ac]!2!!4![GB]!1!!3![FA] !1!!2![EG]2) !2!!4![EG] | !1!!3![CF]2 [CF] GFG | A2 z z3 | %6
w: all * wad still, we|woke and had such a|fright!|
!p! !2!!4![GB]2 [GB] ([FA]GF) | !2!!4![GB]2 [GB] ([FA]GF) | E2 E (DEF | [EG]2) z!<(! [Ec]2 z!<)! | %10
w: Some\- thing crouched on the|win\- dow\- sill! * Oh|how we longed for the|light! *|
!mf! !1!!3![Ac]2 [Ac] !2!!4![Bd]2 [Bd] | (!1!!3![Ac]!2!!4![GB]!1!!3![FA] !1!!2![EG]2) !2!!4![EG] | %12
w: Two Big Eyes were|shn\- ing at, us And|
 !1!!3![CF]2 [CF] (GFG | [^CA]2) z z3 |!mf! !5!B2 B (!1!!5![CA]GF) | %15
w: if you think' was a|cat,|you're quite wrong for we|
"^poco rit." d2 d [Fc]"^a tempo" (BA) | G2 A G2 c | F2 z z3 |!p! (_AGF G2 c | F3) [_A,CF]2 z |] %20
w: saw it well And 'twas|much to big for|that!|||
[K:G][M:4/4][Q:1/4=88]"^Andantino" !2!B,2 |!p! [G,E]2 !1!!2![^DF]2 !1!!3![EG]2 [FA]2 | %22
w: One|day when me and|
 [GB] z!pp!!8va(! (be') (c'=d') b!8va)! z | (G2 E2) (F2 ^D2) | %24
w: Jim * * * * *|Went to take a|
 [B,E] z!pp!!8va(! (be') (c'=d') b!8va)! z | !3!!5![DF]2 !1!!3![B,D]2 !1!!2![^A,^C]2 !2!!4![CE]2 | %26
w: swim, * * * * *|You could nev\- er|
 [DF]2 !2!!4![^CE]!1!!3![B,D] !1!!2![^A,C]2 [CE]2 | [DF]2 [^CE]2 [B,D]2 !2!!4![^A,C]2 | %28
w: guess what we saw up\-|on an old dead|
 B, z!8va(! (f'b')!pp! (g'a' f')!8va)! z | z2!pp!!8va(! (f'b') (g'a' f')!8va)!!<(! z!<)! | %30
w: limb! * * * * *||
 (!4!cB!>(!_B!1!A !3!_A!1!G!3!F!2!=F!>)! |!p! !1!E2) [^DF]2 [EG]2 [FA]2 | %32
w: |Un\- der\- neath a|
 [GB] z!pp!!8va(! (be') (c'=d') b!8va)! z | A2 !1!!2![^GB]2 !1!!3![Ac]2 [Bd]2 | %34
w: tree, * * * * *|Black as he could|
 [ce] z!pp!!8va(! (e'a') (=f'g' e')!8va)! z | [GB]2 [EG]2 !1!!2![^DF]2 !2!!4![FA]2 | %36
w: be! * * * * *|Sat a Great Big|
 [GB]2 ([FA][EG] !1!!2![^DF]2) [FA]2 | [GB]2 [FA]2 [EG]2 [^DF]2 | E2 !fermata!z2 !fermata!B,4 | %39
w: Thing, and he grinned, and|winked ar Jim and|me! *|
!mf! [G,E]2 !1!!2![^DF]2 [EG]2 [FA]2 | [GB] z!pp!!8va(! (be') (c'=d') b!8va)! z | G2 E2 F2 ^D2 | %42
w: Me and Jim stood|there! * * * * *|We were skeered for|
 [B,E] z!8va(! (be') (c'=d' b)!8va)! z | [DF]2 [B,D]2 !1!!2![^A,^C]2 !2!!4![CE]2 | %44
w: fair! * * * * *|Then that thing it|
 [DF][^CE] [B,D]2 [^A,C]2 [CE]2 | [DF]2 [^CE]2 [B,D]2 !2!!4![^A,C]2 | %46
w: wig\- gled a\- round, and|van\- ished in\- to|
 B, z!pp!!8va(! (f'b') (g'a' f')!8va)! z | z2!pp!!8va(! (f'b') (g'a' f')!8va)!!<(! z!<)! | %48
w: air! * * * * *||
 (!4!cB!>(!_B!1!A !3!_A!1!G!3!F!2!=F!>)! |!p! !1!E2) [^DF]2 [EG]2 [FA]2 | %50
w: |Noth\- ing left of|
 [GB] z!pp!!8va(! (be') (c'=d' b)!8va)! z | A2 [^GB]2 [Ac]2 [Bd]2 | [ce] z!pp! (ea) (=fg e) z | %53
w: him * * * * *|On that old dead|limb! * * * * *|
 [GB]2 [EG]2 [^DF]2 [FA]2 | [GB]2 [FA][EG] [^DF]2 [FA]2 | [GB]2 [FA]2 [EG]2 [^DF]2 | %56
w: If you don't be\-|lieve what I say, why|you can just ask|
 E z!pp!!8va(! (be') (c'=d' b)!8va)! z | z2!pp! (Be) (cd B) z | z2!pp! (GB) (GB !4!F) z | %59
w: Jim! * * * * *|||
!pp! [B,E]8 |!<(! [Ge]4!<)!!mf! z2 |[K:F][M:6/8]!p![Q:1/4=114]"^Moderato" (!3!A | B)z(A G)z(A | %63
w: ||||
 B)z(A G)z(A | B)z(A G)z(F | !2!E3) z2 ||!mf![Q:1/4=116]"^Allegretto" A | !4!BzA GzA | !4!BzA GzA | %69
w: |||One|day when moth\- er|went a\- way, and|
 AzG (FGA | E2) z z2 A | BzA GzA | BzA GzA | (AGF) EzA | D2 (Ad) z !2!D |!p! _EzD EzD | _EzD CzE | %77
w: left me all by my\-|self, I|thought I'd like to|have some Jam. ('Twas|up\- on a pan\- try|shelf.) * * But|when I stood up\-|on a chair, I|
 !1!DzG BzG | !1!!4![DA]2 z z2 D |!p! _EzD EzD | _EzD CzE | DzD (!1!C!2!B,!1!C | D2) z z3 | %83
w: heard a rus\- tling|sound! And|in a cor\- ner|dark as pitch was|some\- thing mo\- ving a\-|round!|
!p! !2!!4![c_e]z[Bd] !1!!2![Ac]z[Bd] | [c_e]z[Bd] [Ac]2 z |!pp! z6 |{/^C} D z z!<(! z3!<)! | %87
w: Thought I could not|see a thing,|||
!p! [=Bd]z[Ac] [^GB]z[Ac] | [=Bd]z[Ac] [^GB]2 z |!pp! z6 |!pp! z3!<(! z2!<)! !3!A | %91
w: I could hear it|just as plain!||I|
!mf! !2!!4![GB]z[FA] !1!!2![EG]z[FA] | [GB]z[FA] [EG]z[FA] | [FA]z[EG] (FGA | [^CE]2) z z !3!A2 | %95
w: was so scared I|scarce could scram\- ble|down from out of that|chair! I'll|
 BzA GzA | BzA GzB | (AGF E)zA | D2 (Ad) |[K:G][M:3/8][Q:1/4=116]"^Allegretto"!p! z3 | z3 || %101
w: nev\- er go a\-|gain for Jam when|no\- bod\- y else is|there! * *|||
 (E/!pp!F/ .G).!4!A | (!2!B/c/ .B).e | (!2!B/c/ .B).e | B3 | (!4!A/G/ .F).B | (G/F/ .E)!<(!.G!<)! | %107
w: ||||||
!<(! !2!F/G/!<)!F/E/!>(!!3!D/^C/!>)! | z!<(! B!<)!!>(!B!>)! |!p! (E/F/ .G).A | (B/c/ .B).e | %111
w: ||||
 (c/d/ .c).e |!<(! B3!<)! | (!4!e/^d/!>(! .e)!>)!.c |!p! (!4!B/^A/ .B).=A | (!4!G/B/ .G).F | %116
w: |||||
!p! E2 z |:S z3 | [^DB] z2 | [^DB] z2 | B3 | z3 | [^DB] z2 | [EGA] z2 | [^DB] z2 | %125
w: |||||||||
!pp! (E/F/ .G).A | (!2!B/c/ .B).e | (!2!c/d/ .c).e | B3 |!<(! (!4!e/!<)!^d/!>(! .e).c!>)! | %130
w: |||||
!p! (B/^A/ .B).=A | (G/B/ .G).F |1!p! E2 z!D.S.! :|!p! E!pp! [GBe]2!fine! | %134
w: ||||
[K:F][M:4/4][Q:1/4=114]"^Moderato"!mf! (!4!B A3) (!2!G F3) | (!2!E A3) (!2!e !fermata!a3) | %136
w: ||
!mf! (!3!A c3) (!3!A G3) | (!3!F A3)!>(! (!3!F E3)!>)! |!p! D4 z4 |!pp!{/A} d4!<(! z4!<)! | %140
w: ||||
!mf! (A c3) (A G3) | (!1!A !3!c3)!<(! (!2!=B e3)!<)! |!f!{/e} a4 z4 |!>(!{/e} A4!>)!!p! z4 |: %144
w: ||||
S{/!2!A} !3!B z (3((BAG) G2 e2 | !1!A2 a2 A4) |{/A} !4!B z (3((BAG) !3!G) z (3((!5!B!>(!AG) | %147
w: |||
 !2!E2 D2!>)!!p! !fermata![^CA]4) |!mf! (A c3) (A G3) | (F A3)!>(! (F E3)!>)! |!p! D4 z4 | %151
w: ||||
!pp!{/A} d4 z4 | !1!D z (3((DEF) !2!E) z (3((EFG) | D) z (3((!1!DEF) !2!E) z (3(EFG) | %154
w: |||
!f!!>(! [FA]4 [EA]4!>)! |!p! A D3!p!{/A} d z z2!fine! :| %156
w: ||
[K:Bb][M:4/4]!f![Q:1/4=114]"^Moderato" [DB]4 !3!G !2!F3 | [DB]4 (!3!d!>(! f3)!>)! | %158
w: ||
!p! [Bd]2 (dc B2) (BA | [DG]2)!pp! (G=F [DG]4) ||!p! [B,G]2 (G!4!F [B,D]2) (DF | %161
w: ||One lit\- tle tale I mus'|
 [B,G]2)!pp! (GB GF G2) | [B,G]2 (GF [B,D]2) (DF | [B,G]2)!pp! (GB GF G2) | %164
w: tell (Hm- * m- * m)|One time I went to de|well. (Hm- * m- * m)|
!mf! [Bd]2 ([Bd][Ac] [GB]2) ([GB][Ac] | !3!!5![Bd]2) (!3!df dc d2) | [Bd]2 (dc [GB]2) (BA | %167
w: Den yo' ole Mam\- my, she|got sech a might\- y jar|Caze, chil\- len,' dar wuz de|
 G2) (GB G=F G2) | z2!pp! (gf g4) ||!mf! [DB]4 (G F3) | [DB]4 (d f3) | !4!d2 dc B2 (Bc | %172
w: Bad Man, a set\- tin' dar!|(Hm- * m!)|Oh, Glo\- ry!|Oh, Glo\- ry!|Jes' ought\- er see how yo'|
 d2) (!3!df !1!!2![Ac]4) | [DB]4 (G F3) | [DB]4 (d f3) |!p! [Bd]2 dc BB (BA | [DG]2)!pp! (G=F G4) | %177
w: ole Mam\- my run!|Oh, chil\- len'!|Oh Chil\- len'!|Dar set de Deb\- bil in de|sun! (Hm- * m!)|
!p! [B,G]2 (GF [B,D]2) (DF | [B,G]2)!pp! (GB GF G2) |[Q:1/4=80]"^Slowly" [B,G]2 (GF D2) (DF | %180
w: D'ain no * mo fer to|tell. (Hm- * m- * m!)|Bad Man, he jumped in the|
 [B,G]2)!pp! (gf g4) |[K:Eb][M:4/4][Q:1/4=60]"^A little slow"!mf! z4!>(!!<(! C4!>)!!<)! | %182
w: well! (Hm- * m!)|Oh!|
 (!3!GA !1!F!4!G EF D!3!E | !1!C/D/E/C/ DG C4) | (GA FG !2!E/F/G/E/ DG | C4!<(!!>(! G4)!<)!!>)! | %186
w: There's an Old Man of the Sea who|watch\- es while the sail\- ors sleep.|And he lives down un\- der\- neath the wa\- ters|deep. Oh!|
 (!3!BA GA B/A/G/!2!^F/ !3!GD) | (BA G!2!^F !1!G3 A | BA GA B/A/G/^F/ GD) | (BA G^F G4) | %190
w: If a sail\- or falls in\- to the wa\- ter,|then this bad Old Man will|drag him to the bot\- tom of the o\- cean,|If he thinks he can!|
{/d} !^!g4!>(!{/G} C4!>)! | (GA GA FG DE | C/D/E/C/ DG C4) | (GA FG E/F/G/E/ DG |!>(! C6) z2!>)! |] %195
w: * Oh!|If you get to be a sail\- or,|ne\- ver fall in\- to the sea!|lis\- ten, boys, and ta\- ke this ad\- vice from|me.|
[K:C][M:4/4][Q:1/4=114]"^Moderato""^R. H." [Gf]x[Gf]x[Gf] x | %196
w: |
"^R. H." [^Gf]2 [Ace]2 [Ace] z"^R. H." !2!E2 |"^R. H." [^Gf]x[Gf]x[Gf] x | %198
w: ||
"^R. H." [^Gf]2 [Ace]2 [Ace] z (!2!E2 |!mf! (.!5!A2) GF !2!EFE!1!D | %200
w: ||
!>(! !2!C2!>)! !1!B,) z !^!B,2 z2 |!p! (!3!c2 B) z !^!B2 z2 | z2!pp! [DE^G] z [DEG] z z2 | %203
w: |||
"^R. H." [Gf]x[Gf]x[Gf] x |"^R. H." [^Gf]2 [Ace]2 [Ace] z"^R. H." !1!E2 |!pp! !2!A2 (_BA BABA | %206
w: |||
 _B2 A) z A2 z2 |!f! .c2 (=BA !4!B!2!^GE) z | z8 |!mf! z2 [DE^G] z!>(! [EFG]2 z2!>)! | %210
w: ||||
!p! z2 [CEA] z [CEA] z z2 |!mf! z2!>(! .[EAc]2 !^![D^GB]4!>)! |!mf! z2 .[CA]2 !^![B,^G]4 | %213
w: |||
!pp!"_L. H." [^Ge]2 [Ge] !2!!4![df] [Ge]2 [Ge]"^R. H." [df] | !^![^Ge]4"^R. H." !3!E2 E2 | %215
w: ||
!mf! z2!>(! .[EAc]2 !^![D^GB]4!>)! |!mf! z2!>(! .[CA]2 !^![B,^G]4!>)! | %217
w: ||
!pp! .!2!E2!<(! (!2!E!3!F .E2) (EF | .E2)!<)! EF!mf! !^!E2 z2 |"^R. H."!p! [^Gf]x[Gf]x[Gf] x | %220
w: |||
"^R. H." [^Gf]2 [Ace]2 [Ace] z"^R. H." !2!E2 |"^R. H."!p! [^Gf]z[Gf]x[Gf] x | %222
w: ||
"^R. H." [^Gf]2 [Ace]2 [Ace] z"^R. H." (!2!E2 |!<(! .!5!A2)!<)! (GF EFE!1!D | %224
w: ||
!>(! !2!C2 !1!B,) z !^!B,2!>)! z2 |!p!!>(! (c2!>)! B) z !^!B2 z2 | %226
w: ||
 z2!pp!!>(! [DE^G] z [DEG] z z2!>)! | x8 | x8 | x8 | x8 | z2!mf! (!4!A!2!F) z2 (AF) | %232
w: ||||||
 z2 (!4!A!2!F) z2 (AF) | x8 |!<(! z4!<)!"^R. H.""_L. H." a2 z2 |] %235
w: |||
[M:6/8][Q:1/4=52]"^Lento"!>(! ([ABf]6!>)! |!p! [^Ge]3) z3 ||[Q:1/4=116]"^Allegretto"!mf! !1!A3 B3 | %238
w: |||
 (!3!cBA [^Ge]) z2 | !1!A3 B3 | (!3!cBA [^Ge]) z2 |!>(! (([ABf]3!>)! [^Ge])) z2 | %242
w: ||||
!>(! (([ABf]3!>)! [^Ge])) z2 | (!3!cBA !3!cBA | !3!cBA !4!BA!2!^G) | !1!A3 B3 | %246
w: ||||
 (!3!cBA!>(! !2!!5![^Ge]) z2!>)! |!pp! !1!!5![ea]3 !4!f3 | (!3!edc !2!B) z2 |!p! A,3 B,3 | %250
w: ||||
 CB,A, B,CD |!<(! E3!<)!!>(! E3!>)! | (A,3 A,) z2 |!mf!!>(! (F6 | [CE]3)!>)! z3 |!pp! (F6 | %256
w: ||||||
!ppp! E3)!<(! z3!<)! |!mf! A3 B3 | (cBA Bcd) | [ce]3 [^GBe]3 | A3- A z2 |!p!!>(! [=GBf]6 | %262
w: ||||||
 [Gce]3!>)! z3 |!pp! ([ABf]6 |!ppp! [^GBe]3)!<(! z3!<)! |!mf! A3 B3 | %266
w: ||||
 (cBA !2!!5![^Ge])!>(! z2!>)! |!pp! !1!!5![ea]3 !4!f3 | (!3!edc !2!B) z2 |!p! A3 B3 | (cBA Bcd | %271
w: |||||
 [ce]3) [^GBe]3 |!<(! (A3!p! A) z2!<)!!fine! |] %273
w: ||
V:2
 [F,_A,C]3 [E,B,C]3 | [C,E,B,]3 C,,2 z || !5!!3![F,A,]2 [F,A,] [F,B,]2 [F,B,] | %3
 [F,A,]2 [F,A,] C2 C | !2!A,2 !3!F, !5!!1![B,,G,]3 | !5!!2![A,,E,]2 [A,,E,] [A,,E,]2 z | %6
 !2!^C2 A, D3 | !2!^C,2 A,, D,3 | [G,C]2 [G,C] [G,=B,]2 [G,B,] | !2!!1![_B,C]2 (!1!G, C,2) z | %10
 !5!!3![F,A,]2 [F,A,] [F,B,]2 [F,B,] | [F,A,]2 [F,A,] C2 C | !2!A,2 !3!F, !5!!1![B,,G,]3 | %13
 !5!!2![A,,E,]2 [A,,E,]2 [A,,E,]2 | !1!G,2 !5!C, !2!F,3 | !2!B,2 !5!F, !3!A, (!1!DC) | %16
 !3!!1![B,D]2 !2!!1![B,D] !5!!2!!1![E,B,C] [E,B,C] z | !5!!3!!1![F,A,C]2 (!1!F, F,,3) | %18
 [F,_A,C]2 [C,E,B,]2 z2 | [F,_A,C]2 [F,,E,]2 z2 |][K:G][M:4/4] z2 | B,,8 | %22
[K:treble] E z .e2 .^d2 .e z |[K:bass] B,,4 B,,4 | [E,G,] z[K:treble] .e2 .^d2 .e z | %25
[K:bass] F,4 F,4 | F,4 F,4 | B,,4 F,,4 | [B,,D,F,] z[K:treble] .B2 .^A2 .B z |{/F} B z z2 z4 | %30
[K:bass] [B,,^D,A,]8 | [E,G,B,]4 z4 |[K:treble] E z .e2 .^d2 .e z |[K:bass] [A,CE]8 | %34
 [A,CE] z[K:treble] .A2 .^G2 .A z |[K:bass] B,4 B,4 | B,4 B,4 | B,,4 B,,4 | %38
 [E,G,B,]2 !fermata!z2 !fermata![B,,^D,A,]4 | [E,,B,,]8 |[K:treble] E z .e2 .^d2 .e z | %41
[K:bass] B,,4 B,,4 | [E,G,] z[K:treble] .e2 .^d2 .e z |[K:bass] F,4 F,4 | F,4 F,4 | B,,4 F,,4 | %46
 [B,,D,F,] z[K:treble] .B2 .^A2 .B z |{/F} B z z2 z4 |[K:bass] [B,,^D,A,]8 | [E,G,B,]4 z4 | %50
[K:treble] E z .e2 .^d2 .e z |[K:bass] [A,CE]4 z4 | [A,CE] z[K:treble] .A2 .^G2 .A z | %53
[K:bass] B,4 B,4 | B,4 B,4 | B,,4 B,,4 | [E,G,B,] z[K:treble] .e2 .^d2 .e z | z2 .E2 .^D2 .E z | %58
[K:bass] z2 .B,2 .B,2 .A, z | [E,G,]8 | [E,,B,,]4 z2 |[K:F][M:6/8][K:treble] (!2!F | %62
 !1!G)z(F E)z(F | G)z(F E)z(F | G)z(F E)zF | !5!!3![A,^C]3[K:bass] A,, z || F, | %67
 [A,,G,]z[A,,F,] [A,,E,]z[A,,F,] | [A,,G,]z[A,,F,] [A,,E,]z[A,,G,] | F,zE, (!3!B,,C,F, | %70
 [A,,^C,]2) (!2!E,A,) z2 | [A,,G,]z[A,,F,] [A,,E,]z[A,,F,] | [A,,G,]z[A,,F,] [A,,E,]z[A,,G,] | %73
 (F,E,D, [A,,^C,]2) z | [D,F,]2 (A,D) z [D,B,] | [D,C]z[D,B,] [D,C]z[D,B,] | %76
 [D,C]z[D,B,] [D,A,]z[D,C] | B,3 G,3 | [D,^F,]2 (!3!_E,,!4!D,,) z z | [D,C]z[D,B,] [D,C]z[D,B,] | %80
 [D,C]z[D,B,] [D,A,]z[D,C] | [F,A,]3 [_E,G,]3 | [D,^F,]2 (_E,,D,,) z z | DzD DzD | DzD D2 z | %85
 D,, z z{/^C,} D, z z | z3{/^C,} D, z z | EzE EzE | EzE E2 z | E,, z z{/^D,} E, z z | %90
{/^D} E z z z3 | A,zA, A,zA, | A,zA, A,zA, | A,zA, A,zA, | A,2 (E,A,,) z z | %95
 [A,,G,]z[A,,F,] [A,,E,]z[A,,F,] | [A,,G,]z[A,,F,] [A,,E,]z[A,,G,] | (F,E,D, [A,,^C,]2) z | %98
 [D,F,]2 (A,D) |[K:G][M:3/8] (!5!E,/F,/ .G,).A, | (B, B,,2) || (!4!E,/F,/ .G,).A, | .E,.[G,B,] z | %103
 .E,.[G,B,] z | E,[G,B,][G,B,] | B,,.[^D,A,] z | E,.[G,B,] z | [F,^A,]3 |"^poco rit." (B,2 B,,) | %109
 (!4!E,/F,/ .G,).A, | (E,.[G,B,]) z | (E,.[A,C]) z | E,[G,B,][G,B,] | (C,.!3!!2!!1![E,F,A,]) z | %114
 (B,,.[E,G,]) z | (B,,.[^D,A,]) z | [E,G,] z2 |: (!5!E,/F,/ .G,)!pp!.A, | (B,/^A,/ .B,).B,, | %119
 (=A,/^A,/ .B,).B,, | (=G,/F,/ .G,).F, |!pp! (!5!E,/F,/ .G,).A, | (B,/^A,/ .B,).B,, | %123
 (C/B,/ .C).C, | (B,, B,2) | (E,/F,/ .G,).A, | E,.[G,B,] z | (E,.[A,C]) z | E,[G,B,][G,B,] | %129
 (C,[E,F,G,]) z | (B,,.[E,G,]) z | B,,.[^D,A,] z |1 [E,G,] E,,2 :| [E,G,] E,,2 | %134
[K:F][M:4/4] [D,F,A,]2 z2 [D,F,A,]2 z2 | [A,,^C,G,]2 z2 (E !fermata!A,3) | %136
 (F,2 [A,C]2) (C,2 [E,B,]2) | (D,2 [F,A,]2) (A,,2 [^C,G,]2) | D,2{/^G,} .A,2{/G,} .A,2{/G,} .A,2 | %139
 D,,2{/^G,,} .A,,2{/G,,} .A,,2{/G,,} .A,,2 | (F,2 [A,C]2) (E,2 [B,C]2) | %141
 (F,2 [A,C]2) (E,2 [^G,D]2) | A,2{/^D} .E2{/D} .E2{/D} .E2 | A,,2{/^D,} .E,2{/^G,} .A,2 z2 |: %144
 [=G,DE] z z2 [A,^CD]4 | (!1!A,2 A,,2 A,4) | [D,G,]4 [D,F,]4 | %147
"^poco rit." E,2 D,2 !fermata![A,,E,]4 | (F,2 [A,=C]2) (C,2 [E,B,]2) | %149
 (D,2 [F,A,]2) (A,,2 [^C,G,]2) | D,2{/^G,} A,2{/G,} A,2{/G,} A,2 | %151
 D,,2{/^G,,} A,,2{/G,,} A,,2{/G,,} A,,2 | z8 | D,2 [F,A,]2 B,,2 [D,A,]2 | %154
 A,,2 [D,F,]2 A,,2 [^C,G,]2 | D,2 [F,A,]2 [D,,A,,] z z2 :| %156
[K:Bb][M:4/4] [B,,F,]2 [B,,F,]2 [B,,F,]2 [B,,F,]2 | [B,,F,]2 [B,,F,]2 [B,,F,]2 [B,,F,]2 | %158
 [D,G,]2 [D,G,]2 D,2 (DC | [G,B,]2) (E,2 B,,4) || !5!!2![G,,D,]4 [G,,D,]4 | D,4 !1!E,2 !2!D,2 | %162
 [G,,D,]4 [G,,D,]4 | (D,4 E,2 D,2) | [G,,D,]4 [G,,D,]4 | (!2!F,4 !1!_G,2 !2!F,2) | [D,G,]4 (D3 C) | %167
 [G,B,]4 ^C2 D2 |[K:treble] z2 (E2 D4) ||[K:bass] [B,,F,]2 [B,,F,]2 [B,,F,]2 [B,,F,]2 | %170
 [B,,F,]2 [B,,F,]2 [B,,F,]2 [B,,F,]2 | [B,F]2 FE [B,D]2 DE | [B,F]2 [B,F]2 F2 F,2 | %173
 [B,,F,]2 [B,,F,]2 [B,,F,]2 [B,,F,]2 | [B,,F,]2 [B,,F,]2 [B,,F,]2 [B,,F,]2 | %175
 [D,G,]2 [D,G,]2 D,2 (DC) | [G,B,]2 (E,2 D,4) | [G,,D,]4 [G,,D,]4 | (D,4 E,2 D,2) | %179
 [G,,D,]4 [G,,D,]4 | [G,,D,]2[K:treble] (E2 D4) | %181
[K:Eb][M:4/4][K:bass]{G,,=A,,=B,,} .C,2{G,,A,,B,,} .C,2{G,,A,,B,,} .C,2{G,,A,,B,,} .C,2 | %182
{G,,=A,,=B,,} .C,2{G,,A,,B,,} .C,2{G,,A,,B,,} .C,2{G,,A,,B,,} .C,2 | %183
{G,,=A,,=B,,} .C,2{G,,A,,B,,} .C,2{G,,A,,B,,} .C,2{G,,A,,B,,} .C,2 | %184
{G,,=A,,=B,,} .C,2{G,,A,,B,,} .C,2{G,,A,,B,,} .C,2{G,,A,,B,,} .C,2 | %185
{G,,=A,,=B,,} .C,2{G,,A,,B,,} .C,2{D,,=E,,^F,,} .G,,2{D,,E,,F,,} .G,,2 | %186
{D,,=E,,^F,,} .G,,2{D,,E,,F,,} .G,,2{D,,E,,F,,} .G,,2{D,,E,,F,,} .G,,2 | %187
{D,,=E,,^F,,} .G,,2{D,,E,,F,,} .G,,2{D,,E,,F,,} .G,,2{D,,E,,F,,} .G,,2 | %188
{D,,=E,,^F,,} .G,,2{D,,E,,F,,} .G,,2{D,,E,,F,,} .G,,2{D,,E,,F,,} .G,,2 | %189
{D,,=E,,^F,,} .G,,2{D,,E,,F,,} .G,,2{D,,E,,F,,} .G,,2{D,,E,,F,,} .G,,2 | %190
{D,,=E,,^F,,} .G,,2{D,,E,,F,,} .G,,2{G,,=A,,=B,,} .C,2{G,,A,,B,,} .C,2 | %191
{G,,=A,,=B,,} .C,2{G,,A,,B,,} .C,2{G,,A,,B,,} .C,2{G,,A,,B,,} .C,2 | %192
{G,,=A,,=B,,} .C,2{G,,A,,B,,} .C,2{G,,A,,B,,} .C,2{G,,A,,B,,} .C,2 | %193
{F,,G,,=A,,} .B,,2{F,,G,,A,,} .B,,2{F,,G,,A,,} .B,,2{F,,G,,A,,} .B,,2 | %194
{F,,G,,=A,,} .B,,2{F,,G,,A,,} .B,,2!p!{F,,G,,A,,} .B,,2 z2 |] %195
[K:C][M:4/4]"^L. H."!p![I:staff -1] .[Ace]2[I:staff +1] x4 | x8 | %197
"^L. H."!p![I:staff -1] .[Ace]2[I:staff +1] x4 |"^L. H." x8 | [A,C]2 z2 z4 | %200
 ([E,A,]2 [E,^G,]) z !^![E,G,]2 z2 |[K:treble] [EA]2 [E^G] z !^![EG]2 z2 | %202
[K:bass] (F,2 E,) z !^!E,2 z2 |"^L. H."!p![I:staff -1] .[Ace]2[I:staff +1] x4 | x8 | %205
 .[A,^C]2 z2 z4 | [DF]2 [DF] z [DF]2 z2 | E2 z2 z4 | C2 (B,A, !1!B,^G,E,) z | F,2 E, z E,2 z2 | %210
 A,2 A,, z A,,2 z2 | !^!E,6 z2 | !^!E,6 z2 | x8 | x8 | !^!E,6 z2 | !^!E,6 z2 | %217
 .[E,^G,]2 z2 .[E,A,]2 z2 | .[E,^A,]2 z2 !^![E,B,]2 z2 | %219
"^L. H."[I:staff -1] .[Ace]2[I:staff +1] x4 |"^L. H." x8 |"^L. H." x6 |"^L. H." x8 | %223
 .[A,C]2 z2 z4 | (E,2 [E,^G,]) z !^![E,G,]2 z2 |[K:treble] ([EA]2 [E^G]) z !^![EG]2 z2 | %226
[K:bass] (F,2 E,) z !^!E,2 z2 |"_L. H." .[A,CE]2"^R. H." [^G,F]x[G,F]x[G,F] x | %228
"^R. H." [^G,F]2"_L. H." [A,CE]2 [A,CE] z"^R. H." !2!E,2 | %229
"_L. H." .[A,CE]2"^R. H." [^G,F]x[G,F]x[G,F] x | %230
"^R. H." [^G,F]2"_L. H." [A,CE]2 [A,CE] z"^R. H." E,2 | .[A,CE]2 z2 .[A,CE]2 z2 | %232
 .[A,CE]2 z2 .[A,CE]2 z2 |"^L. H." .[A,CE]2"^R. H." F,2"_L.H." (!1!E,2 !3!C,2 | !5!A,,4) z4 |] %235
[M:6/8]"^Once upon a time" (D,6 | E,3) z3 || [A,E]3 [^G,E]3 | [A,E]3 [E,B,] z2 | [A,E]3 [^G,E]3 | %240
 [A,E]3 [E,B,] z2 | (D,3 E,) z2 | (D,3 E,) z2 | [DF]3 [CE]3 | [C_E]3 [B,D]3 | [A,=E]3 [^G,E]3 | %246
 [A,E]3 [E,B,] z2 |[K:treble] !1!c3 !2!d3 | (!1!cBA ^G) z2 |[K:bass] C,3 B,,3 | A,,3 !2!D,3 | %251
 E,3 ^G,2 z | [A,,C,E,]2 z[K:treble]{/^G} A z2 |[K:bass] [G,B,]6 | G,3 z3 | [A,B,]6 | [^G,B,]3 z3 | %257
 [A,E]3 [^G,E]3 | [A,E]3 D3 | (E3 E,3) | [A,CE]3- [A,CE] z2 | G,6 | C3 z3 | D6 | E3 z2 z | %265
[K:bass] [A,E]3 [^G,E]3 | [A,E]3 [E,B,] z2 |[K:treble] c3 d3 | (!1!dBA ^G) z2 | %269
[K:bass] [A,E]3 [^G,E]3 | [A,E]3 D3 | (E3 E,3) | [A,CE]2 z[K:treble]{/^g} a z2 |] %273
V:3
 x6 | x6 || x6 | x6 | x3 D3 | ^C2 x4 | x6 | x6 | x6 | x6 | x6 | x6 | x3 D3 | x6 | !2!E2 x4 | %15
 F3 x3 | x6 | x6 | x6 | x6 |][K:G][M:4/4] x2 | x8 | x2!8va(! g2 g2 g!8va)! x | B,4 [A,B,]4 | %24
 x2!8va(! g2 g2 g!8va)! x | x8 | x8 | x8 | x2!8va(! d'2 d'2 d'!8va)! x | %29
 x2!8va(! d'2 d'2 d'!8va)! x | x8 | x8 | x2!8va(! g2 g2 g!8va)! x | x8 | %34
 x2!8va(! c'2 d'2 c'!8va)! x | x8 | x8 | x8 | x8 | x8 | x2!8va(! g2 g2 g!8va)! x | B,4 [A,B,]4 | %42
 x2!8va(! g2 g2 g!8va)! x | x8 | x8 | x8 | x2!8va(! d'2 d'2 d'!8va)! x | %47
 x2!8va(! d'2 d'2 d'!8va)! x | x8 | x8 | x2!8va(! g2 a2 g!8va)! x | x8 | x2 c2 d2 c x | x8 | x8 | %55
 x8 | x2!8va(! g2 a2 g!8va)! x | x2 G2 A2 G x | x2 E2 E2 !2!^D x | x8 | x6 |[K:F][M:6/8] x | x6 | %63
 x6 | x6 | x5 || x | x6 | x6 | x6 | x6 | x6 | x6 | x6 | x6 | x6 | x6 | x6 | x6 | x6 | x6 | x6 | %82
 x6 | x6 | x6 | x6 | x6 | x6 | x6 | x6 | x6 | x6 | x6 | x3 D3 | x6 | x6 | x6 | x6 | x4 | %99
[K:G][M:3/8] x3 | x3 || x3 | x3 | x3 | x3 | x3 | x3 | x3 | x GG | x3 | x3 | x3 | x3 | x3 | x3 | %115
 x3 | x3 |: x3 | x3 | x3 | (E2 ^D) | x3 | x3 | x3 | x3 | x3 | x3 | x3 | x3 | x3 | x3 | x3 |1 x3 :| %133
 x3 |[K:F][M:4/4] x8 | x8 | x8 | x8 | x8 | x8 | x8 | x8 | x8 | x8 |: x8 | x8 | x8 | x8 | x8 | x8 | %150
 x8 | x8 | x8 | x8 | x8 | x8 :|[K:Bb][M:4/4] x4 D4 | x4 B4 | x2 B2 G2 ^F2 | x2 ^C2 x4 || %160
 x2 B,2 x2 B,2 | x2 D2 ^C2 D2 | x2 B,2 x2 B,2 | x2 D2 ^C2 D2 | x8 | x2 !1!B2 A2 B2 | x2 B2 x2 ^F2 | %167
 G2 D2 E2 G2 | x2 ^c2 d4 || x4 D4 | x4 B4 | x8 | x2 !1!B2 x4 | x4 D4 | x4 B4 | x2 B2 G2 ^F2 | %176
 x2 (^C2 D4) | x2 B,2 x2 B,2 | x2 (D2 ^C2 D2) | x2 B,2 B,2 B,2 | x2 (^c2 d4) |[K:Eb][M:4/4] x8 | %182
 x8 | x8 | x8 | x8 | x8 | x8 | x8 | x8 | x8 | x8 | x8 | x8 | x8 |] %195
[K:C][M:4/4] x [Ace]x[Ace]x[Ace] | x8 | x [Ace]x[Ace]x[Ace] | x8 | x8 | x8 | x8 | x8 | %203
 x [Ace]x[Ace]x[Ace] | x8 | x8 | x8 | x8 | x8 | x8 | x8 | x8 | x8 | x7 z | z2 x6 | x8 | x8 | x8 | %218
 x8 | x [Ace]x[Ace]x[Ace] | x8 | x [Ace]z[Ace]z[Ace] | x8 | x8 | x8 | x8 | x8 | x8 | x8 | x8 | x8 | %231
 x8 | x8 | x8 | x4 [ce]2 x2 |][M:6/8] x6 | x6 || x6 | x6 | x6 | x6 | x6 | x6 | x6 | x6 | x6 | x6 | %247
 x6 | x6 | x6 | x6 | x6 | x6 | x6 | x6 | x6 | x6 | x6 | x6 | x6 | x6 | x6 | x6 | x6 | x6 | x6 | %266
 x6 | x6 | x6 | x6 | x6 | x6 | x6 |] %273
V:4
 x6 | x6 || x6 | x6 | x6 | x6 | x6 | x6 | x6 | x6 | x6 | x6 | x6 | x6 | x6 | x6 | x6 | x6 | x6 | %19
 x6 |][K:G][M:4/4] x2 | E,,8 |[K:treble] x8 |[K:bass] x8 | x2[K:treble] x6 |[K:bass] x8 | x8 | x8 | %28
 x2[K:treble] x6 | x8 |[K:bass] x8 | x8 |[K:treble] x8 |[K:bass] x8 | x2[K:treble] x6 | %35
[K:bass] x8 | x8 | x8 | x8 | x8 |[K:treble] x8 |[K:bass] x8 | x2[K:treble] x6 |[K:bass] x8 | x8 | %45
 x8 | x2[K:treble] x6 | x8 |[K:bass] x8 | x8 |[K:treble] x8 |[K:bass] x8 | x2[K:treble] x6 | %53
[K:bass] x8 | x8 | x8 | x2[K:treble] x6 | x8 |[K:bass] x8 | x8 | x6 |[K:F][M:6/8][K:treble] x | %62
 x6 | x6 | x6 | x2[K:bass] x3 || x | x6 | x6 | A,,6 | x6 | x6 | x6 | A,,3 x3 | x6 | x6 | x6 | D,6 | %78
 x6 | x6 | x6 | x6 | x6 | x6 | x6 | x6 | x6 | x6 | x6 | x6 | x6 | x6 | x6 | x6 | x6 | x6 | x6 | %97
 A,,3 x3 | x4 |[K:G][M:3/8] x3 | x3 || x3 | x3 | x3 | x3 | x3 | x3 | x3 | B,2 x | x3 | x3 | x3 | %112
 x3 | x3 | x3 | x3 | x3 |: x3 | x3 | x3 | x3 | x3 | x3 | x3 | x3 | x3 | x3 | x3 | x3 | x3 | x3 | %131
 x3 |1 x3 :| x3 |[K:F][M:4/4] x8 | x8 | x8 | x8 | x8 | x8 | x8 | x8 | x8 | x8 |: x8 | x8 | x8 | %147
 x8 | x8 | x8 | x8 | x8 | x8 | x8 | x8 | x8 :|[K:Bb][M:4/4] x8 | x8 | x6 D,2 | x2 G,,6 || x8 | %161
 G,,8 | x8 | G,,8 | x8 | !5!B,,8 | x4 D,4 | x8 |[K:treble] x2 G,6 ||[K:bass] x8 | x8 | %171
 x2 B,2 x2 B,2 | x8 | x8 | x8 | x6 D,2 | z2 G,,6 | x8 | G,,8 | x8 | x2[K:treble] G,6 | %181
[K:Eb][M:4/4][K:bass] x8 | x8 | x8 | x8 | x8 | x8 | x8 | x8 | x8 | x8 | x8 | x8 | x8 | x8 |] %195
[K:C][M:4/4] x6 | x8 | x6 | x8 | x8 | x8 |[K:treble] x8 |[K:bass] x8 | x6 | x8 | x8 | x8 | x8 | %208
 x8 | x8 | x8 | x8 | x8 | x8 | x8 | x8 | x8 | x8 | x8 | x6 | x8 | x6 | x8 | x8 | x8 | %225
[K:treble] x8 |[K:bass] x8 | x3 [A,CE]x[A,CE]x[A,CE] | x8 | x3 [A,CE]x[A,CE]x[A,CE] | x8 | x8 | %232
 x8 | x8 | x8 |][M:6/8] x6 | x6 || x6 | x6 | x6 | x6 | x6 | x6 | x6 | x6 | x6 | x6 |[K:treble] x6 | %248
 x6 |[K:bass] x6 | x6 | x3 E,,3 | x3[K:treble] x3 |[K:bass] G,,6 | C,3 x3 | D,6 | E,3 x3 | x6 | %258
 x6 | x6 | x6 | x6 | x6 | x6 | x6 |[K:bass] x6 | x6 |[K:treble] x6 | x6 |[K:bass] x6 | x6 | x6 | %272
 x3[K:treble] x3 |] %273

